assets/img/components/accordion.svg

<svg width="272" height="143" viewBox="0 0 272 143" fill="none" xmlns="http://www.w3.org/2000/svg">
<rect width="272" height="143" rx="8" fill="#EFF6FB"/>
<rect x="21" y="22" width="230" height="26" rx="5" fill="#D0D0CE"/>
<path d="M35 35C35 33.3431 36.3431 32 38 32H203C204.657 32 206 33.3431 206 35C206 36.6569 204.657 38 203 38H38C36.3431 38 35 36.6569 35 35Z" fill="#154973"/>
<rect x="21" y="95" width="230" height="26" rx="5" fill="#D0D0CE"/>
<path d="M233.5 34.7982L228.953 39.3453C228.739 39.559 228.467 39.6659 228.137 39.6659C227.806 39.6659 227.534 39.559 227.321 39.3453C227.107 39.1315 227 38.8595 227 38.5291C227 38.1988 227.107 37.9268 227.321 37.713L232.684 32.3498C232.917 32.1166 233.189 32 233.5 32C233.811 32 234.083 32.1166 234.316 32.3498L239.679 37.713C239.893 37.9268 240 38.1988 240 38.5291C240 38.8595 239.893 39.1315 239.679 39.3453C239.466 39.559 239.194 39.6659 238.863 39.6659C238.533 39.6659 238.261 39.559 238.047 39.3453L233.5 34.7982Z" fill="#154973"/>
<path d="M35 108C35 106.343 36.3431 105 38 105H203C204.657 105 206 106.343 206 108C206 109.657 204.657 111 203 111H38C36.3431 111 35 109.657 35 108Z" fill="#A7A9AB"/>
<path d="M35 60C35 58.3431 36.3431 57 38 57H153.5C155.157 57 156.5 58.3431 156.5 60C156.5 61.6569 155.157 63 153.5 63H38C36.3431 63 35 61.6569 35 60Z" fill="#457AA5"/>
<path d="M35 74C35 72.3431 36.3431 71 38 71H126C127.657 71 129 72.3431 129 74C129 75.6569 127.657 77 126 77H38C36.3431 77 35 75.6569 35 74Z" fill="#457AA5"/>
<path d="M233.5 108.868L238.047 104.321C238.261 104.107 238.533 104 238.863 104C239.194 104 239.466 104.107 239.679 104.321C239.893 104.534 240 104.807 240 105.137C240 105.467 239.893 105.739 239.679 105.953L234.316 111.316C234.083 111.549 233.811 111.666 233.5 111.666C233.189 111.666 232.917 111.549 232.684 111.316L227.321 105.953C227.107 105.739 227 105.467 227 105.137C227 104.807 227.107 104.534 227.321 104.321C227.534 104.107 227.806 104 228.137 104C228.467 104 228.739 104.107 228.953 104.321L233.5 108.868Z" fill="#A7A9AB"/>
</svg>

<svg xmlns="http://www.w3.org/2000/svg" width="272" height="143" fill="none" viewBox="0 0 272 143"><rect width="272" height="143" fill="#eff6fb" rx="8"/><rect width="230" height="26" x="21" y="22" fill="#d0d0ce" rx="5"/><path fill="#154973" d="M35 35a3 3 0 0 1 3-3h165a3 3 0 1 1 0 6H38a3 3 0 0 1-3-3"/><rect width="230" height="26" x="21" y="95" fill="#d0d0ce" rx="5"/><path fill="#154973" d="m233.5 34.798-4.547 4.547q-.321.32-.816.32-.497 0-.816-.32a1.1 1.1 0 0 1-.321-.816q0-.495.321-.816l5.363-5.363q.35-.35.816-.35t.816.35l5.363 5.363q.321.321.321.816t-.321.816q-.32.32-.816.32t-.816-.32z"/><path fill="#a7a9ab" d="M35 108a3 3 0 0 1 3-3h165a3 3 0 1 1 0 6H38a3 3 0 0 1-3-3"/><path fill="#457aa5" d="M35 60a3 3 0 0 1 3-3h115.5a3 3 0 1 1 0 6H38a3 3 0 0 1-3-3M35 74a3 3 0 0 1 3-3h88a3 3 0 1 1 0 6H38a3 3 0 0 1-3-3"/><path fill="#a7a9ab" d="m233.5 108.868 4.547-4.547q.321-.321.816-.321.497 0 .816.321.321.32.321.816t-.321.816l-5.363 5.363q-.35.35-.816.35t-.816-.35l-5.363-5.363a1.1 1.1 0 0 1-.321-.816q0-.496.321-.816.32-.321.816-.321t.816.321z"/></svg>
